X: 1
T: Eklundapolska #3
C: Viksta Lasse (Leonard Larsson)
S: Dala Spelmanslag
M: 3/4
L: 1/16
F: http://www.v-dalaspelmanslag.se/pdf/vdala027.pdf
Z: 2006 John Chambers <jc@trillian.mit.edu>
K: G
|: g2b2 b2g2 d2B2 | cBcd egec A3c \
|  B2AB cdcA B2G2 | A2d2 d8 |
|  g2b2 b2g2 d2B2 | cBcd egec A3c \
|  B2AB cdcA BcBG | AcAF G8 :|
|: B3B  c3c  B3B  | A2d2 d8 \
|  B3B  c3c  B3B  | ABAF D8 |
|  B3B  c3c  B3B  | A2d2 d8 \
|  G2AB cdcA BcBG | AcAF G8 |
|  B2B2 c2c2 B2B2 | Ad3  d8 \
|  B2B2 c2c2 B2B2 | ABAF D8 |
|  B2B2 c2c2 B2B2 | Ad3  d8 \
|  G2AB cdcA BcBG | AcAF G8 :|
